packages/match-icons/product/svg/short-codes.svg

<svg fill="none" height="32" viewBox="0 0 32 32" width="32" xmlns="http://www.w3.org/2000/svg"><g fill="#394762"><path d="m7.77 30.09c-.26545.0054-.52869-.0493-.77-.16-.3029-.1423-.55833-.3689-.7357-.6527-.17736-.2838-.26913-.6127-.2643-.9473v-4.33h-3.5c-.3283 0-.65339-.0647-.95671-.1903-.30331-.1256-.57891-.3098-.811057-.5419-.232146-.2322-.416295-.5078-.541932-.8111-.1256366-.3033-.190301-.6284-.190301-.9567v-15c0-.66304.263392-1.29893.732233-1.76777.468837-.46884 1.104727-.73223 1.767767-.73223h9.5c.2652 0 .5196.10536.7071.29289.1875.18754.2929.44189.2929.70711s-.1054.51957-.2929.70711c-.1875.18753-.4419.29289-.7071.29289h-9.5c-.13261 0-.25979.05268-.35355.14645-.09377.09376-.14645.22094-.14645.35355v15c0 .1326.05268.2598.14645.3536.09376.0937.22094.1464.35355.1464h5.55v5.78l6.57-5.78h14.88c.1326 0 .2598-.0527.3536-.1464.0937-.0938.1464-.221.1464-.3536v-3.5c0-.2652.1054-.5196.2929-.7071s.4419-.2929.7071-.2929.5196.1054.7071.2929.2929.4419.2929.7071v3.5c0 .3283-.0647.6534-.1903.9567s-.3098.5789-.5419.8111c-.2322.2321-.5078.4163-.8111.5419s-.6284.1903-.9567.1903h-14.12l-6.47 5.66c-.31669.2745-.72092.427-1.14.43z"/><path d="m31 10h-3v-4h3c.2652 0 .5196-.10536.7071-.29289.1875-.18754.2929-.44189.2929-.70711s-.1054-.51957-.2929-.70711c-.1875-.18753-.4419-.29289-.7071-.29289h-3v-3c0-.265216-.1054-.51957-.2929-.707107-.1875-.187536-.4419-.292893-.7071-.292893s-.5196.105357-.7071.292893c-.1875.187537-.2929.441891-.2929.707107v3h-4v-3c0-.265216-.1054-.51957-.2929-.707107-.1875-.187536-.4419-.292893-.7071-.292893s-.5196.105357-.7071.292893c-.1875.187537-.2929.441891-.2929.707107v3h-3c-.2652 0-.5196.10536-.7071.29289-.1875.18754-.2929.44189-.2929.70711s.1054.51957.2929.70711c.1875.18753.4419.29289.7071.29289h3v4h-3c-.2652 0-.5196.1054-.7071.2929s-.2929.4419-.2929.7071.1054.5196.2929.7071.4419.2929.7071.2929h3v3c0 .2652.1054.5196.2929.7071s.4419.2929.7071.2929.5196-.1054.7071-.2929.2929-.4419.2929-.7071v-3h4v3c0 .2652.1054.5196.2929.7071s.4419.2929.7071.2929.5196-.1054.7071-.2929.2929-.4419.2929-.7071v-3h3c.2652 0 .5196-.1054.7071-.2929s.2929-.4419.2929-.7071-.1054-.5196-.2929-.7071-.4419-.2929-.7071-.2929zm-9 0v-4h4v4z"/></g></svg>

<svg width="32" height="32" viewBox="0 0 32 32" fill="none" xmlns="http://www.w3.org/2000/svg">
<path d="M7.77 30.09C7.50455 30.0954 7.24131 30.0407 7 29.93C6.6971 29.7877 6.44167 29.5611 6.2643 29.2773C6.08694 28.9935 5.99517 28.6646 6 28.33V24H2.5C2.1717 24 1.84661 23.9353 1.54329 23.8097C1.23998 23.6841 0.96438 23.4999 0.732233 23.2678C0.500087 23.0356 0.315938 22.76 0.190301 22.4567C0.0646644 22.1534 0 21.8283 0 21.5L0 6.5C0 5.83696 0.263392 5.20107 0.732233 4.73223C1.20107 4.26339 1.83696 4 2.5 4H12C12.2652 4 12.5196 4.10536 12.7071 4.29289C12.8946 4.48043 13 4.73478 13 5C13 5.26522 12.8946 5.51957 12.7071 5.70711C12.5196 5.89464 12.2652 6 12 6H2.5C2.36739 6 2.24021 6.05268 2.14645 6.14645C2.05268 6.24021 2 6.36739 2 6.5V21.5C2 21.6326 2.05268 21.7598 2.14645 21.8536C2.24021 21.9473 2.36739 22 2.5 22H8.05V27.78L14.62 22H29.5C29.6326 22 29.7598 21.9473 29.8536 21.8536C29.9473 21.7598 30 21.6326 30 21.5V18C30 17.7348 30.1054 17.4804 30.2929 17.2929C30.4804 17.1054 30.7348 17 31 17C31.2652 17 31.5196 17.1054 31.7071 17.2929C31.8946 17.4804 32 17.7348 32 18V21.5C32 21.8283 31.9353 22.1534 31.8097 22.4567C31.6841 22.76 31.4999 23.0356 31.2678 23.2678C31.0356 23.4999 30.76 23.6841 30.4567 23.8097C30.1534 23.9353 29.8283 24 29.5 24H15.38L8.91 29.66C8.59331 29.9345 8.18908 30.087 7.77 30.09V30.09Z" fill="#394762"/>
<path d="M31 10H28V6H31C31.2652 6 31.5196 5.89464 31.7071 5.70711C31.8946 5.51957 32 5.26522 32 5C32 4.73478 31.8946 4.48043 31.7071 4.29289C31.5196 4.10536 31.2652 4 31 4H28V1C28 0.734784 27.8946 0.48043 27.7071 0.292893C27.5196 0.105357 27.2652 0 27 0C26.7348 0 26.4804 0.105357 26.2929 0.292893C26.1054 0.48043 26 0.734784 26 1V4H22V1C22 0.734784 21.8946 0.48043 21.7071 0.292893C21.5196 0.105357 21.2652 0 21 0C20.7348 0 20.4804 0.105357 20.2929 0.292893C20.1054 0.48043 20 0.734784 20 1V4H17C16.7348 4 16.4804 4.10536 16.2929 4.29289C16.1054 4.48043 16 4.73478 16 5C16 5.26522 16.1054 5.51957 16.2929 5.70711C16.4804 5.89464 16.7348 6 17 6H20V10H17C16.7348 10 16.4804 10.1054 16.2929 10.2929C16.1054 10.4804 16 10.7348 16 11C16 11.2652 16.1054 11.5196 16.2929 11.7071C16.4804 11.8946 16.7348 12 17 12H20V15C20 15.2652 20.1054 15.5196 20.2929 15.7071C20.4804 15.8946 20.7348 16 21 16C21.2652 16 21.5196 15.8946 21.7071 15.7071C21.8946 15.5196 22 15.2652 22 15V12H26V15C26 15.2652 26.1054 15.5196 26.2929 15.7071C26.4804 15.8946 26.7348 16 27 16C27.2652 16 27.5196 15.8946 27.7071 15.7071C27.8946 15.5196 28 15.2652 28 15V12H31C31.2652 12 31.5196 11.8946 31.7071 11.7071C31.8946 11.5196 32 11.2652 32 11C32 10.7348 31.8946 10.4804 31.7071 10.2929C31.5196 10.1054 31.2652 10 31 10ZM22 10V6H26V10H22Z" fill="#394762"/>
</svg>
